!! Orlando di Lasso, "Justi tulerant spolia impiorum" 2-part polyphony;
!! alla breve; No. 7 from "Examples of Gregorian Chant & Works ...", compiled
!! by Gustave Soderlund, Appleton-Century-Crofts (New York), 1937; pp. 14-15
**kern	**kern
*M4/2	*M4/2
=1	=1
0r	1.f
.	4e
.	4d
=2	=2
1.F	1c
.	1d
4E	.
4D	.
=3	=3
1C	2r
.	2e
1D	2f
.	2d
=4	=4
2r	2.c
2A	.
.	4c
2B-	1d
2G	.
=5	=5
2.F	2r
.	1f
4F	.
1G	.
.	2e
=6	=6
2r	1d
1B-	.
.	1c
2A	.
=7	=7
1G	2r
.	1e-
1F	.
.	2d
=8	=8
2r	1c
1E-	.
.	1B-
2D	.
=9	=9
1C	2r
.	2c
1BB-	4d
.	4c
.	4B-
.	4A
=10	=10
2r	2G
2D	2F
4C	2.G
4D	.
4E	.
4F	4A
=11	=11
2G	2B-
2A	2c
2.G	2r
.	[2g
4F	.
=12	=12
2E	2g]
2D	2f
2r	[1e
[2A	.
=13	=13
2A]	1e]
2G	.
1F	2r
.	[2A
=14	=14
1D	2A]
.	2Bn
2E	1c
[2F	.
=15	=15
4F]	2.d
4D	.
2B-	.
.	4e
2.A	2f
.	2e
4G	.
=16	=16
4F	4d
4E	4c
2F	2.c
1D	.
.	8Bn
.	8A
.	2B
=17	=17
1C	0c
2r	.
2E	.
=18	=18
2G	2r
1A	2c
.	2e
2D	[2f
=19	=19
2.d	2f]
.	2B-
4c	.
4B-	2.f
4A	.
[2B-	.
.	4e
=20	=20
4B-]	4d
4A	4c
4G	2d
4F	.
2G	2B-
2A	[2f
=21	=21
1B-	2f]
.	2d
[1A	2r
.	2f
=22	=22
1A]	2e
.	1c
1F	.
.	4B-
.	4A
=23	=23
2E	2c
1G	2B-
.	2.d
4F	.
4E	4c
=24	=24
2G	4B-
.	4G
2F	4A
.	4B-
2A	2c
2G	2B-
=25	=25
1A	0A
2r	.
[2F	.
=26	=26
2F]	1.c
2F	.
1F	.
.	2c
=27	=27
2r	0c
2.A	.
4G	.
4F	.
4E	.
=28	=28
1D	2r
.	2.f
1BB-	.
.	4e
.	4d
.	4c
=29	=29
2r	1B-
2.d	.
.	1G
4c	.
4B-	.
4A	.
=30	=30
4G	2r
4F	.
4E-	2.B-
4D	.
2E-	.
.	4c
[2BB-	4d
.	4e
=31	=31
4BB-]	2.f
4C	.
4D	.
4E-	8e
.	8d
4F	2.c
4G	.
4A	.
4B-	4d
=32	=32
4c	2e
4A	.
2d	2.f
2.B-	.
.	4e
.	4d
4A	4c
=33	=33
4G	4B-
4F	4c
2.F	2A
.	1G
8E	.
8D	.
2E	.
=34	=34
0F;	0F;
==	==
*-	*-
